<?xml version="1.0" encoding="UTF-8"?>
<!--
  Jadu's horse-supply stall, stamped into vanilla Town whenever the Bookseller is in.

  This map is never loaded as a location: TownStallManager feeds it to
  GameLocation.ApplyMapOverride, which copies it onto the live Town map at (111,26).
  Taking the stall back down is NOT done with a second "blank" rectangle - the manager
  snapshots the twenty tiles it is about to cover and writes them back - so this file
  only ever has to describe the stall itself.

  LAYER ORDER MATTERS, and it is deliberately Buildings -> Front -> AlwaysFront.
  ApplyMapOverride walks these layers in order per tile, and once one of them supplies a
  tile, every null AFTER it erases whatever Town had on that layer ("flag2" in the game's
  copy loop). Nulls BEFORE the first supplied tile are harmless. Putting Buildings first
  means the awning's top row - which only paints AlwaysFront - leaves Town's Buildings
  layer alone, so the notice board and the bench underneath survive and simply get drawn
  over (AlwaysFront renders above Buildings). List AlwaysFront first instead and those
  tiles are deleted outright, which chopped the left end off the bench.

  Only the (non-seasonal) Festivals sheet is referenced, so nothing here has to survive
  updateSeasonalTileSheets - the dirt underneath is Town's own Back layer, untouched.

  Art is the Egg Festival's shop stall, copied verbatim from Town-EggFestival.tmx at
  (19..22, 49..53). It is FIVE rows, and the top two are easy to miss:

    row 0  AlwaysFront  960,12,13,992  - awning top, with the flag poles
    row 1  AlwaysFront  43,44,45,46    - striped awning
    row 2  AlwaysFront  75,76,77,78    - frame posts + hanging signs
    row 3  Front        107,108,109,110- counter top, goods on it
    row 4  Buildings    139,140,141,142- counter face (solid; carries the shop action)

  Leave out rows 0-1 and you get a roofless frame - which is what happened first time.
-->
<map version="1.10" tiledversion="1.12.2" orientation="orthogonal" renderorder="right-down" width="4" height="5" tilewidth="16" tileheight="16" infinite="0" nextlayerid="4" nextobjectid="5">
 <tileset firstgid="1" name="Festivals" tilewidth="16" tileheight="16" tilecount="1024" columns="32">
  <image source="Festivals.png" width="512" height="512"/>
 </tileset>
 <layer id="1" name="Buildings" width="4" height="5">
  <data encoding="csv">
0,0,0,0,
0,0,0,0,
0,0,0,0,
0,0,0,0,
140,141,142,143
</data>
 </layer>
 <layer id="2" name="Front" width="4" height="5">
  <data encoding="csv">
0,0,0,0,
0,0,0,0,
0,0,0,0,
108,109,110,111,
0,0,0,0
</data>
 </layer>
 <layer id="3" name="AlwaysFront" width="4" height="5">
  <data encoding="csv">
961,13,14,993,
44,45,46,47,
76,77,78,79,
0,0,0,0,
0,0,0,0
</data>
 </layer>
 <objectgroup id="4" name="Buildings">
  <object id="1" name="TileData" x="0" y="64" width="16" height="16">
   <properties>
    <property name="Action" value="OpenShop CP.HorseTycoon_IsaacFestivalShop down"/>
   </properties>
  </object>
  <object id="2" name="TileData" x="16" y="64" width="16" height="16">
   <properties>
    <property name="Action" value="OpenShop CP.HorseTycoon_IsaacFestivalShop down"/>
   </properties>
  </object>
  <object id="3" name="TileData" x="32" y="64" width="16" height="16">
   <properties>
    <property name="Action" value="OpenShop CP.HorseTycoon_IsaacFestivalShop down"/>
   </properties>
  </object>
  <object id="4" name="TileData" x="48" y="64" width="16" height="16">
   <properties>
    <property name="Action" value="OpenShop CP.HorseTycoon_IsaacFestivalShop down"/>
   </properties>
  </object>
 </objectgroup>
</map>
